flaticon/interaction/calendar-33.svg

<svg xmlns="http://www.w3.org/2000/svg" width="32" height="32" viewBox="0 0 24 24">
    <path d="M 13.421875 14.238281 L 13.421875 24 L 23.1875 24 L 23.1875 14.238281 Z M 22.371094 23.1875 L 18.710938 23.1875 L 18.710938 18.066406 L 20.457031 19.8125 L 21.035156 19.238281 L 18.304688 16.507812 L 15.578125 19.238281 L 16.152344 19.8125 L 17.898438 18.066406 L 17.898438 23.1875 L 14.238281 23.1875 L 14.238281 15.050781 L 22.371094 15.050781 Z M 22.371094 23.1875"/>
    <path d="M 15.457031 13.015625 L 19.117188 13.015625 L 19.117188 8.542969 L 3.660156 8.542969 L 3.660156 20.339844 L 11.796875 20.339844 L 11.796875 13.015625 Z M 15.457031 9.355469 L 18.304688 9.355469 L 18.304688 12.203125 L 15.457031 12.203125 Z M 8.136719 9.355469 L 10.984375 9.355469 L 10.984375 12.203125 L 8.136719 12.203125 Z M 4.472656 9.355469 L 7.320312 9.355469 L 7.320312 12.203125 L 4.472656 12.203125 Z M 4.472656 13.015625 L 7.320312 13.015625 L 7.320312 15.863281 L 4.472656 15.863281 Z M 7.320312 19.527344 L 4.472656 19.527344 L 4.472656 16.679688 L 7.320312 16.679688 Z M 10.984375 19.527344 L 8.136719 19.527344 L 8.136719 16.679688 L 10.984375 16.679688 Z M 10.984375 15.863281 L 8.136719 15.863281 L 8.136719 13.015625 L 10.984375 13.015625 Z M 11.796875 12.203125 L 11.796875 9.355469 L 14.644531 9.355469 L 14.644531 12.203125 Z M 11.796875 12.203125"/>
    <path d="M 11.390625 22.371094 L 1.628906 22.371094 L 1.628906 6.507812 L 21.152344 6.507812 L 21.152344 12.203125 C 21.152344 12.429688 21.335938 12.609375 21.558594 12.609375 C 21.785156 12.609375 21.964844 12.429688 21.964844 12.203125 L 21.964844 2.035156 C 21.964844 1.808594 21.785156 1.628906 21.558594 1.628906 L 19.527344 1.628906 L 19.527344 0.40625 C 19.527344 0.183594 19.34375 0 19.117188 0 L 16.269531 0 C 16.046875 0 15.863281 0.183594 15.863281 0.40625 L 15.863281 1.628906 L 6.914062 1.628906 L 6.914062 0.40625 C 6.914062 0.183594 6.734375 0 6.507812 0 L 3.660156 0 C 3.4375 0 3.253906 0.183594 3.253906 0.40625 L 3.253906 1.628906 L 1.21875 1.628906 C 0.996094 1.628906 0.8125 1.808594 0.8125 2.035156 L 0.8125 22.78125 C 0.8125 23.003906 0.996094 23.1875 1.21875 23.1875 L 11.390625 23.1875 C 11.613281 23.1875 11.796875 23.003906 11.796875 22.78125 C 11.796875 22.554688 11.613281 22.371094 11.390625 22.371094 Z M 16.679688 0.8125 L 18.710938 0.8125 L 18.710938 3.253906 L 16.679688 3.253906 Z M 4.066406 0.8125 L 6.101562 0.8125 L 6.101562 3.253906 L 4.066406 3.253906 Z M 1.628906 2.441406 L 3.253906 2.441406 L 3.253906 3.660156 C 3.253906 3.886719 3.4375 4.066406 3.660156 4.066406 L 6.507812 4.066406 C 6.734375 4.066406 6.914062 3.886719 6.914062 3.660156 L 6.914062 2.441406 L 15.863281 2.441406 L 15.863281 3.660156 C 15.863281 3.886719 16.046875 4.066406 16.269531 4.066406 L 19.117188 4.066406 C 19.34375 4.066406 19.527344 3.886719 19.527344 3.660156 L 19.527344 2.441406 L 21.152344 2.441406 L 21.152344 5.695312 L 1.628906 5.695312 Z M 1.628906 2.441406"/>
</svg>

<svg xmlns="http://www.w3.org/2000/svg" width="32" height="32" viewBox="0 0 24 24">
    <path d="M13.422 14.238V24h9.765v-9.762zm8.95 8.95H18.71v-5.122l1.746 1.747.578-.575-2.73-2.73-2.727 2.73.574.575 1.746-1.747v5.122h-3.66V15.05h8.133zm0 0"/>
    <path d="M15.457 13.016h3.66V8.543H3.66V20.34h8.137v-7.324zm0-3.66h2.848v2.847h-2.848zm-7.32 0h2.847v2.847H8.137zm-3.664 0H7.32v2.847H4.473zm0 3.66H7.32v2.847H4.473zm2.847 6.511H4.473V16.68H7.32zm3.664 0H8.137V16.68h2.847zm0-3.664H8.137v-2.847h2.847zm.813-3.66V9.355h2.848v2.848zm0 0"/>
    <path d="M11.39 22.371H1.63V6.508h19.523v5.695a.406.406 0 1 0 .813 0V2.035a.403.403 0 0 0-.406-.406h-2.032V.406a.41.41 0 0 0-.41-.406H16.27a.408.408 0 0 0-.407.406V1.63H6.914V.406A.406.406 0 0 0 6.508 0H3.66a.408.408 0 0 0-.406.406V1.63H1.219a.406.406 0 0 0-.407.406v20.746c0 .223.184.407.407.407H11.39a.408.408 0 0 0 0-.817zM16.68.813h2.03v2.44h-2.03zm-12.614 0h2.036v2.44H4.066zM1.63 2.44h1.625v1.22c0 .226.183.405.406.405h2.848c.226 0 .406-.18.406-.406V2.441h8.95v1.22c0 .226.183.405.406.405h2.847c.227 0 .41-.18.41-.406V2.441h1.625v3.254H1.63zm0 0"/>
</svg>
